X: 6
T: Martin Rochford's
R: reel
M: 4/4
L: 1/8
K: Cmaj
|: G2 DE GABd | dBeB dBAB | GEDE GBeB |1 dBAc BEEF :|2 dBAc BEE || g3 g fedA | Beed Beef | g2 bg fedB | dBAc BEEf || g2 ag fedA | Beed e3 f | g2bg faaf | dBAd BEEF |


Tune 1062	Setting 24062

